X: 4766
T: Boys Of Fairhill
R: polka
M: 2/4
K: Gmajor
|:"G" DG GG|"G" GB G2|"D" AB cA|"D" FA D2|"G" B2 cA|
"D" d2 cA|1 "G" G2 cB|"D" A2 z2:|2 "D" G2 AF|"G" G2 z2||

